!!!OTL: 2015. Andacht bei den heil. Wunden Jesu.
!!!ARE: Europa, Mitteleuropa, Deutschland, Schlesien, Glatz
!!!SCT: E2015
!!!TXL: @@DE
!!!YEM: Copyright 1995, estate of Helmut Schaffrath.
**kern	**text
*ICvox	*
*M4/4	*
*met(c|)	*
*k[f#]	*
*G:	*
=1	=1
!LO:TX:a:t=Sehr mäßig.	!
{2g	Je-
2a	-ſu
=2	=2
(4cc	Wunden,
4b)	.
2b}	.
=3	=3
{2dd	al-
(4cc	-le
4b)	.
=4	=4
(4b/	Stunden
4a)	.
2a}	.
=5	=5
{2a	ſeid
(4b/	ver-
4a)	.
=6	=6
2g	-eh-
4a	-ret
4b/}	ʒu
=7	=7
{2cc	tau-
2b	-ſend-
=8	=8
2a	-mal!
2r}	.
=9	=9
{2a	Seid
(4b	ge-
4cc)	.
=10	=10
(4b/	-grü-
4a)	.
2a}	-ßet,
=11	=11
{2a	ſeid
(4b/	ge-
4cc)	.
=12	=12
(4b/	-küſ-
4a)	.
2a}	-ſet,
=13	=13
{2g	mei-
2a	-ner
=14	=14
2b	See-
(4dd	-len
4cc)}	.
=15	=15
{2b	Le-
2a	-bens-
=16	=16
1g}	-quall!
==	==
!!!AGN: geistlich, Gebet, Jesus - Lied
!!!ONB: ESAC (Essen Associative Code) Database: ERK3
!!!AMT: simple quadruple
!!!AIN: vox
!!!EED: Helmut Schaffrath
!!!EEV: 1.0
!!!GTL: Geistliche Lieder. 3. Jesuslieder (Anbetung des Heilandes.)
!!!URL-scan: https://rosdok.uni-rostock.de/mcrviewer/recordIdentifier/rosdok_ppn745177999/iview2/phys_0724.iview2?x=188.96815741118007&y=836.5113372872584&scale=0.7014306698522891&rotation=0&layout=singlePageLayout
!!!ENC: Anna Maria Matuszewska
!!!EEV: 2025/10/01
*-	*-
